src/assets/icons/filters/categories/t-shirt_selected.svg

<svg width="48" height="45" viewBox="0 0 48 45" fill="none" xmlns="http://www.w3.org/2000/svg">
<path fill-rule="evenodd" clip-rule="evenodd" d="M46.2223 6.22181L34.2866 0.33389H34.285C33.8697 0.128337 33.4148 0.015046 32.9516 0.00178756C32.4883 -0.0114709 32.0277 0.0756169 31.6013 0.257078C30.7078 0.638006 30.0337 1.39046 29.7484 2.32475C28.9912 4.80156 26.6289 6.53219 24.0016 6.53219C21.3758 6.53219 19.0135 4.80313 18.2547 2.32475C18.1161 1.86571 17.8784 1.44266 17.5586 1.08541C17.2387 0.728165 16.8444 0.445412 16.4034 0.257078C15.9771 0.0753095 15.5164 -0.0119463 15.0531 0.00131365C14.5898 0.0145736 14.1349 0.128034 13.7197 0.33389L1.7808 6.21867C1.24697 6.47644 0.796683 6.87957 0.481676 7.38175C0.166668 7.88393 -0.000284428 8.4648 3.63747e-07 9.0576V20.7394C3.63747e-07 21.694 0.429523 22.5891 1.17727 23.1942C1.54729 23.4932 1.9785 23.7071 2.44038 23.8209C2.90226 23.9347 3.3835 23.9455 3.85003 23.8526L7.23919 23.1833C7.2711 23.1775 7.30388 23.1787 7.33527 23.1868C7.36667 23.1949 7.39593 23.2098 7.42103 23.2303C7.44598 23.2498 7.46605 23.2748 7.47965 23.3033C7.49326 23.3319 7.50002 23.3633 7.49941 23.3949V41.8252C7.49941 43.5762 8.94474 44.9996 10.7193 44.9996H37.2823C39.0568 44.9996 40.5006 43.5762 40.5006 41.8252V23.3965C40.4997 23.3646 40.5064 23.3329 40.52 23.304C40.5336 23.2752 40.5538 23.2499 40.579 23.2303C40.6041 23.2093 40.6337 23.1944 40.6654 23.1865C40.6972 23.1786 40.7304 23.178 40.7624 23.1848L44.1515 23.8542C44.6181 23.9471 45.0993 23.9362 45.5612 23.8225C46.0231 23.7087 46.4543 23.4947 46.8243 23.1958C47.572 22.5907 48 21.6956 48 20.7409V9.0623C48 7.85055 47.3181 6.76263 46.2223 6.22181V6.22181Z" fill="#13C1AC" fill-opacity="0.7"/>
<path fill-rule="evenodd" clip-rule="evenodd" d="M45.0027 20.7409C45.0034 20.7728 44.9966 20.8044 44.983 20.8332C44.9694 20.862 44.9493 20.8873 44.9244 20.9071C44.8991 20.9279 44.8695 20.9427 44.8378 20.9506C44.8061 20.9585 44.773 20.9591 44.741 20.9526L41.3518 20.2832C41.0718 20.231 40.7861 20.2162 40.5022 20.2393V16.8893C40.5009 16.6936 40.4611 16.5001 40.3851 16.3198C40.309 16.1395 40.1981 15.9759 40.0588 15.8385C39.9194 15.7011 39.7544 15.5924 39.5731 15.5188C39.3917 15.4452 39.1977 15.4081 39.002 15.4095C38.8063 15.4081 38.6122 15.4452 38.4309 15.5188C38.2495 15.5924 38.0845 15.7011 37.9451 15.8385C37.8058 15.9759 37.6949 16.1395 37.6189 16.3198C37.5428 16.5001 37.503 16.6936 37.5018 16.8893V34.644H10.5014V16.8909C10.5003 16.6951 10.4607 16.5014 10.3847 16.3209C10.3087 16.1404 10.1979 15.9766 10.0585 15.839C9.9192 15.7014 9.75408 15.5927 9.57264 15.519C9.3912 15.4453 9.19701 15.4081 9.00118 15.4095C8.80548 15.4081 8.61141 15.4452 8.43007 15.5188C8.24874 15.5924 8.08369 15.7011 7.94436 15.8385C7.80503 15.9759 7.69416 16.1395 7.61808 16.3198C7.542 16.5001 7.50221 16.6936 7.50098 16.8893V20.2393C7.42887 20.2346 7.3599 20.2221 7.28779 20.2221C7.07409 20.222 6.86091 20.243 6.65134 20.2848L3.26532 20.9526C3.23342 20.9596 3.20034 20.9593 3.16858 20.9517C3.13681 20.9441 3.10718 20.9294 3.08191 20.9087C3.05652 20.8888 3.03609 20.8633 3.02221 20.8342C3.00834 20.8051 3.00141 20.7732 3.00196 20.7409V9.05917C3.00196 8.97765 3.04899 8.90398 3.12267 8.86792L15.06 2.98001C15.0832 2.96679 15.1093 2.95932 15.136 2.95823C15.1627 2.95714 15.1893 2.96245 15.2136 2.97373C15.2512 2.98941 15.3421 3.04271 15.3829 3.17752C16.5178 6.89588 20.0622 9.49183 24.0016 9.49183C27.941 9.49183 31.4853 6.89588 32.6218 3.17909C32.6329 3.1346 32.6539 3.09318 32.6832 3.0579C32.7125 3.02262 32.7494 2.99439 32.7911 2.9753C32.8152 2.96366 32.8418 2.95801 32.8685 2.95882C32.8953 2.95964 32.9214 2.96691 32.9447 2.98001L44.882 8.86949C44.9557 8.90397 45.0027 8.97922 45.0027 9.06073V20.7394V20.7409ZM37.2839 42.0415H10.7208C10.6923 42.0419 10.664 42.0367 10.6374 42.0261C10.6109 42.0155 10.5868 41.9998 10.5664 41.9798C10.546 41.9599 10.5297 41.9361 10.5186 41.9098C10.5074 41.8835 10.5016 41.8553 10.5014 41.8268V37.6021H37.5018V41.8252C37.5016 41.8537 37.4957 41.882 37.4846 41.9082C37.4734 41.9345 37.4571 41.9583 37.4367 41.9783C37.4163 41.9982 37.3922 42.014 37.3657 42.0246C37.3392 42.0351 37.3108 42.0404 37.2823 42.04L37.2839 42.0415ZM46.2239 6.22181L34.2866 0.33389H34.285C33.8697 0.128337 33.4148 0.015046 32.9516 0.00178756C32.4883 -0.0114709 32.0277 0.0756169 31.6013 0.257078C30.7078 0.638006 30.0337 1.39046 29.7484 2.32475C28.9912 4.80156 26.6289 6.53219 24.0016 6.53219C21.3758 6.53219 19.0135 4.80313 18.2547 2.32475C18.1161 1.86571 17.8784 1.44266 17.5586 1.08541C17.2387 0.728165 16.8444 0.445412 16.4034 0.257078C15.9771 0.0753095 15.5164 -0.0119463 15.0531 0.00131365C14.5898 0.0145736 14.1349 0.128034 13.7197 0.33389L1.7808 6.21867C1.24697 6.47644 0.796683 6.87957 0.481676 7.38175C0.166668 7.88393 -0.000284428 8.4648 3.63747e-07 9.0576V20.7394C3.63747e-07 21.694 0.429523 22.5891 1.17727 23.1942C1.54729 23.4932 1.9785 23.7071 2.44038 23.8209C2.90226 23.9347 3.3835 23.9455 3.85003 23.8526L7.23919 23.1833C7.2711 23.1775 7.30388 23.1787 7.33527 23.1868C7.36667 23.1949 7.39593 23.2098 7.42103 23.2303C7.44598 23.2498 7.46605 23.2748 7.47965 23.3033C7.49326 23.3319 7.50002 23.3633 7.49941 23.3949V41.8252C7.49941 43.5762 8.94474 44.9996 10.7193 44.9996H37.2823C39.0568 44.9996 40.5006 43.5762 40.5006 41.8252V23.3965C40.4997 23.3646 40.5064 23.3329 40.52 23.304C40.5336 23.2752 40.5538 23.2499 40.579 23.2303C40.6041 23.2093 40.6337 23.1944 40.6654 23.1865C40.6972 23.1786 40.7304 23.178 40.7624 23.1848L44.1515 23.8542C44.6181 23.9471 45.0993 23.9362 45.5612 23.8225C46.0231 23.7087 46.4543 23.4947 46.8243 23.1958C47.572 22.5907 48 21.6956 48 20.7409V9.0623C48 7.85055 47.3181 6.76263 46.2223 6.22181H46.2239Z" fill="#0F9989"/>
<path fill-rule="evenodd" clip-rule="evenodd" d="M45.0028 20.741C45.0034 20.7728 44.9966 20.8044 44.983 20.8332C44.9694 20.862 44.9494 20.8873 44.9244 20.9071C44.8991 20.9279 44.8696 20.9427 44.8378 20.9506C44.8061 20.9585 44.773 20.9591 44.741 20.9526L41.3518 20.2832C41.0718 20.231 40.7861 20.2162 40.5022 20.2393V16.8894C40.501 16.6937 40.4612 16.5001 40.3851 16.3198C40.309 16.1395 40.1981 15.9759 40.0588 15.8385C39.9195 15.7011 39.7544 15.5924 39.5731 15.5188C39.3918 15.4452 39.1977 15.4081 39.002 15.4095C38.8063 15.4081 38.6122 15.4452 38.4309 15.5188C38.2495 15.5924 38.0845 15.7011 37.9452 15.8385C37.8058 15.9759 37.695 16.1395 37.6189 16.3198C37.5428 16.5001 37.503 16.6937 37.5018 16.8894V34.644H10.5014V16.8909C10.5004 16.6951 10.4607 16.5014 10.3847 16.3209C10.3088 16.1404 10.1979 15.9767 10.0586 15.8391C9.91922 15.7015 9.7541 15.5927 9.57266 15.519C9.39122 15.4453 9.19703 15.4081 9.0012 15.4095C8.8055 15.4081 8.61143 15.4452 8.4301 15.5188C8.24876 15.5924 8.08371 15.7011 7.94438 15.8385C7.80506 15.9759 7.69418 16.1395 7.6181 16.3198C7.54203 16.5001 7.50223 16.6937 7.501 16.8894V20.2393C7.42889 20.2346 7.35992 20.2221 7.28781 20.2221C7.07411 20.222 6.86093 20.243 6.65136 20.2848L3.26534 20.9526C3.23344 20.9596 3.20037 20.9593 3.1686 20.9517C3.13684 20.9441 3.10721 20.9294 3.08193 20.9087C3.05654 20.8888 3.03611 20.8633 3.02224 20.8342C3.00837 20.8051 3.00143 20.7732 3.00198 20.741V9.05918C3.00198 8.97767 3.04901 8.90399 3.12269 8.86794L15.06 2.98002C15.0832 2.9668 15.1093 2.95934 15.136 2.95825C15.1628 2.95716 15.1894 2.96247 15.2136 2.97375C15.2512 2.98943 15.3422 3.04272 15.3829 3.17754C16.5179 6.89589 20.0622 9.49184 24.0016 9.49184C27.941 9.49184 31.4853 6.89589 32.6218 3.17911C32.633 3.13461 32.654 3.09319 32.6833 3.05792C32.7126 3.02264 32.7494 2.99441 32.7911 2.97532C32.8152 2.96367 32.8418 2.95802 32.8685 2.95884C32.8953 2.95966 32.9214 2.96693 32.9448 2.98002L44.8821 8.8695C44.9557 8.90399 45.0028 8.97924 45.0028 9.06075V20.7394V20.741Z" fill="white" fill-opacity="0.5"/>
</svg>

<svg width="48" height="45" viewBox="0 0 48 45" fill="none" xmlns="http://www.w3.org/2000/svg"><path fill-rule="evenodd" clip-rule="evenodd" d="M46.222 6.222L34.287.334h-.002a3.213 3.213 0 00-2.684-.077 3.28 3.28 0 00-1.853 2.068c-.757 2.477-3.12 4.207-5.746 4.207-2.626 0-4.988-1.729-5.747-4.207A3.28 3.28 0 0016.403.257a3.209 3.209 0 00-2.683.077L1.78 6.219A3.15 3.15 0 000 9.058v11.681c0 .955.43 1.85 1.177 2.455a3.245 3.245 0 002.673.659l3.39-.67a.224.224 0 01.24.12c.013.029.02.06.02.092v18.43C7.5 43.576 8.944 45 10.72 45h26.562c1.775 0 3.219-1.424 3.219-3.175V23.396a.204.204 0 01.078-.166.216.216 0 01.183-.045l3.39.67a3.246 3.246 0 002.672-.66A3.147 3.147 0 0048 20.742V9.062c0-1.211-.682-2.3-1.778-2.84z" fill="#13C1AC" fill-opacity=".7"/><path fill-rule="evenodd" clip-rule="evenodd" d="M45.003 20.74a.206.206 0 01-.079.167.22.22 0 01-.183.046l-3.39-.67a3.214 3.214 0 00-.849-.044v-3.35a1.492 1.492 0 00-1.5-1.48 1.49 1.49 0 00-1.5 1.48v17.755h-27V16.891a1.49 1.49 0 00-1.5-1.481A1.49 1.49 0 007.5 16.89v3.35c-.072-.005-.141-.018-.213-.018-.214 0-.427.021-.637.063l-3.386.668a.216.216 0 01-.183-.044.209.209 0 01-.08-.168V9.059c0-.081.047-.155.12-.191L15.06 2.98a.167.167 0 01.154-.006.311.311 0 01.169.204c1.135 3.718 4.68 6.314 8.619 6.314s7.483-2.596 8.62-6.313a.305.305 0 01.17-.204.167.167 0 01.153.005l11.937 5.89c.074.034.12.11.12.19v11.68zm-7.72 21.302H10.722a.217.217 0 01-.22-.215v-4.225h27v4.223a.217.217 0 01-.219.215l.002.002zm8.94-35.82L34.288.334h-.002a3.213 3.213 0 00-2.684-.077 3.28 3.28 0 00-1.853 2.068c-.757 2.477-3.12 4.207-5.746 4.207-2.626 0-4.988-1.729-5.747-4.207A3.28 3.28 0 0016.403.257a3.209 3.209 0 00-2.683.077L1.78 6.219A3.15 3.15 0 000 9.058v11.681c0 .955.43 1.85 1.177 2.455a3.245 3.245 0 002.673.659l3.39-.67a.224.224 0 01.24.12c.013.029.02.06.02.092v18.43C7.5 43.576 8.944 45 10.72 45h26.562c1.775 0 3.219-1.424 3.219-3.175V23.396a.204.204 0 01.078-.166.216.216 0 01.183-.045l3.39.67a3.246 3.246 0 002.672-.66A3.147 3.147 0 0048 20.742V9.062c0-1.211-.682-2.3-1.778-2.84h.002z" fill="#0F9989"/><path fill-rule="evenodd" clip-rule="evenodd" d="M45.003 20.741a.207.207 0 01-.079.166.22.22 0 01-.183.046l-3.39-.67a3.214 3.214 0 00-.849-.044v-3.35a1.488 1.488 0 00-1.5-1.48 1.49 1.49 0 00-1.5 1.48v17.755h-27V16.891a1.489 1.489 0 00-1.5-1.481A1.49 1.49 0 007.5 16.89v3.35c-.072-.005-.141-.018-.213-.018-.214 0-.427.021-.637.063l-3.386.668a.216.216 0 01-.183-.044.209.209 0 01-.08-.168V9.059c0-.081.047-.155.12-.191L15.06 2.98a.167.167 0 01.154-.006.31.31 0 01.169.204c1.135 3.718 4.68 6.314 8.619 6.314s7.483-2.596 8.62-6.313a.307.307 0 01.17-.204.166.166 0 01.153.005l11.937 5.89c.074.034.12.11.12.19v11.681z" fill="#fff" fill-opacity=".5"/></svg>
